public/icons/pc.svg

<svg width="46" height="46" viewBox="0 0 46 46" fill="none" xmlns="http://www.w3.org/2000/svg">
<g clip-path="url(#clip0_529_95)">
<path d="M12.2671 29.2356V13.5444H31.1782L33.1971 11.5H10.2227V29.2356H12.2671Z" fill="#FE0072"/>
<path d="M7.66688 8.94447H38.3336V29.3889H40.8891V8.30558C40.8891 7.79725 40.6872 7.30974 40.3277 6.95029C39.9683 6.59085 39.4808 6.38892 38.9724 6.38892H7.02799C6.51966 6.38892 6.03215 6.59085 5.67271 6.95029C5.31326 7.30974 5.11133 7.79725 5.11133 8.30558V29.3889H7.66688V8.94447Z" fill="#FE0072"/>
<path d="M1.27734 31.9445V36.2889C1.27734 37.17 1.62736 38.015 2.2504 38.6381C2.87344 39.2611 3.71846 39.6111 4.59957 39.6111H41.3229C42.204 39.6111 43.049 39.2611 43.6721 38.6381C44.2951 38.015 44.6451 37.17 44.6451 36.2889V31.9445H1.27734ZM42.1662 36.2889C42.1662 36.4922 42.0855 36.6872 41.9417 36.831C41.7979 36.9748 41.6029 37.0556 41.3996 37.0556H4.54845C4.34512 37.0556 4.15012 36.9748 4.00634 36.831C3.86256 36.6872 3.78179 36.4922 3.78179 36.2889V33.8995H16.4957C16.6554 34.2764 16.9221 34.5982 17.2627 34.8253C17.6033 35.0524 18.003 35.1747 18.4123 35.1772H27.5229C27.9323 35.1747 28.3319 35.0524 28.6726 34.8253C29.0132 34.5982 29.2798 34.2764 29.4396 33.8995H42.1662V36.2889Z" fill="#FE0072"/>
</g>
<defs>
<clipPath id="clip0_529_95">
<rect width="46" height="46" fill="white"/>
</clipPath>
</defs>
</svg>

<svg width="46" height="46" fill="none" xmlns="http://www.w3.org/2000/svg"><g clip-path="url(#a)" fill="#FE0072"><path d="M12.267 29.236V13.544h18.911l2.02-2.044H10.222v17.736h2.044Z"/><path d="M7.667 8.944h30.667V29.39h2.555V8.306a1.916 1.916 0 0 0-1.917-1.917H7.028a1.917 1.917 0 0 0-1.917 1.917v21.083h2.556V8.944ZM1.277 31.945v4.344A3.322 3.322 0 0 0 4.6 39.61h36.723a3.323 3.323 0 0 0 3.322-3.322v-4.345H1.277Zm40.89 4.344a.767.767 0 0 1-.767.767H4.548a.767.767 0 0 1-.766-.767v-2.39h12.714a2.095 2.095 0 0 0 1.916 1.278h9.11A2.096 2.096 0 0 0 29.44 33.9h12.726v2.389Z"/></g><defs><clipPath id="a"><path fill="#fff" d="M0 0h46v46H0z"/></clipPath></defs></svg>
